X: 4
T: The Blacksmith's
M: 4/4
L: 1/8
R: reel
K: G Major
dB B/B/B dBGB |  dBBd ABce | dB B2 dBGB | c2 Bc AB c/B/A |
dB B2 dBGB | B2 dB ABcA | dB B2 dBGB | c/c/c Bc AcBA ||
G2 BG DGBG | G/G/G BG FGAF | GABG DGBG | c/c/c Bc AcBA |
G2 BG DGBG | G/G/G BG FGAF | G2 BG DGBG | c2 Bc AB c/B/A |]
dB B/B/B dBGB | dBBB ABcA | dB B/B/B dBGB | c2 Bc ABcA |
dB B2 dBGB | dBBd ABcA | d3 ^c dBGB | c/c/c Bc AcBA ||
G2 BG DGBG | G/G/G BG FGAF | GABG DGBG | c/c/c Bc AcBA |
G2 BG DGBG | G/G/G BG FGAF | G2 GG GBBB | c/c/c Bc ABcA |]
dB B2 dBgB | dBBg ABcA | d3 ^c dBGB | c2 Bc ABcA |
dB B/B/B dBgB | aBgB fBeB | dB B/B/B dBGB | c/c/c Bc AcBA ||
G3 B DG G/G/G | G/G/G BG FGAF | G2 GB DGGG | c/c/c Bc AcBA |
G3 G DG G/G/G | G2 GG F3 A | G2 GG DGGG | c/c/c Bc ABcA | d8 |]
